X: 1
T: Miss Barstow's Reel
C: Robert Macintosh
R:Reel
K:G
M:4/4
L:1/8
D \
| G2 DG B,G, B,D | EA AG FD EF \
|1 G2 DG EG ce | dc BA BG G \
:|2 G2 DG EG ce | dc BA BG G ||
|: f \
| gf gd BG dB | Aa ag fd ef \
|1 gf gd BG dB | ce dc BG G \
:|2 gb ag fd gc | Bd Ac BG G :|
%%center Book18/MissBarstowsReel_G-BS.abc

%%sep 1 1 500
%%sep 1 1 500

